proprietary/assets/icons/computer-en-internet/tablet.svg

<svg height="64" viewBox="0 0 64 64" width="64" xmlns="http://www.w3.org/2000/svg"><path d="m0 0h64v64h-64z" fill="none"/><path d="m53 13h-42c-2.2092 0-4 1.7908-4 4v30c0 2.2092 1.7908 4 4 4h42c2.2092 0 4-1.7908 4-4v-30c0-2.2092-1.7908-4-4-4zm-4 34h-38v-30h38zm4-12.8c-1.215 0-2.2-.985-2.2-2.2s.985-2.2 2.2-2.2 2.2.985 2.2 2.2-.985 2.2-2.2 2.2z"/></svg>

<?xml version="1.0" encoding="utf-8"?>
<!-- Generator: Adobe Illustrator 19.1.0, SVG Export Plug-In . SVG Version: 6.00 Build 0)  -->
<svg version="1.2" baseProfile="tiny" xmlns="http://www.w3.org/2000/svg" xmlns:xlink="http://www.w3.org/1999/xlink" x="0px"
	 y="0px" width="64px" height="64px" viewBox="0 0 64 64" xml:space="preserve">
<g id="_x36_4px_Box">
	<rect fill="none" width="64" height="64"/>
</g>
<g id="Icon">
	<g>
		<path d="M53,13H11c-2.2092,0-4,1.7908-4,4v30c0,2.2092,1.7908,4,4,4h42c2.2092,0,4-1.7908,4-4V17C57,14.7908,55.2092,13,53,13z
			 M49,47H11V17h38V47z M53,34.2c-1.215,0-2.2-0.985-2.2-2.2s0.985-2.2,2.2-2.2s2.2,0.985,2.2,2.2S54.215,34.2,53,34.2z"/>
	</g>
</g>
</svg>
